src/home/img/benefit-stream.svg

<svg height="57" viewBox="0 0 80 57" width="80" xmlns="http://www.w3.org/2000/svg" xmlns:xlink="http://www.w3.org/1999/xlink"><radialGradient id="a" cx="22.09%" cy="0%" r="106.679%"><stop offset="0" stop-color="#fff"/><stop offset="1" stop-color="#aec3eb"/></radialGradient><linearGradient id="b" x1="50%" x2="50%" y1="0%" y2="100%"><stop offset="0" stop-color="#3f6abc"/><stop offset="1" stop-color="#1851be"/></linearGradient><filter id="c" height="111.4%" width="108.5%" x="-4.2%" y="-5.7%"><feGaussianBlur in="SourceGraphic" stdDeviation=".65"/></filter><mask id="d" fill="#fff"><path d="m.5 13.84c0-7.367 5.973-13.34 13.34-13.34h48.32c7.367 0 13.34 5.973 13.34 13.34v48.32c0 7.367-5.973 13.34-13.34 13.34h-48.32c-7.367 0-13.34-5.973-13.34-13.34z" fill="#fff" fill-rule="evenodd"/></mask><mask id="e" fill="#fff"><path d="m.5 13.84c0-7.367 5.973-13.34 13.34-13.34h48.32c7.367 0 13.34 5.973 13.34 13.34v48.32c0 7.367-5.973 13.34-13.34 13.34h-48.32c-7.367 0-13.34-5.973-13.34-13.34z" fill="#fff" fill-rule="evenodd"/></mask><g fill="none" fill-rule="evenodd" transform="translate(-4 -7)"><path d="m.5 13.84c0-7.367 5.973-13.34 13.34-13.34h48.32c7.367 0 13.34 5.973 13.34 13.34v48.32c0 7.367-5.973 13.34-13.34 13.34h-48.32c-7.367 0-13.34-5.973-13.34-13.34z" mask="url(#d)"/><path d="m.5 13.84c0-7.367 5.973-13.34 13.34-13.34h48.32c7.367 0 13.34 5.973 13.34 13.34v48.32c0 7.367-5.973 13.34-13.34 13.34h-48.32c-7.367 0-13.34-5.973-13.34-13.34z"/><path d="m.5 13.84c0-7.367 5.973-13.34 13.34-13.34h48.32c7.367 0 13.34 5.973 13.34 13.34v48.32c0 7.367-5.973 13.34-13.34 13.34h-48.32c-7.367 0-13.34-5.973-13.34-13.34z"/><g fill-rule="nonzero" stroke="#fff" stroke-opacity=".01" stroke-width="1.68"><rect fill="url(#a)" height="40" mask="url(#e)" rx="20" width="40" x="5" y="8"/><rect fill="url(#a)" height="40" mask="url(#e)" rx="20" width="40" x="5" y="8"/><g fill="url(#b)" transform="translate(17 14)"><path d="m47.1122449 38.5c.9636805 0 1.744898.7835017 1.744898 1.75v7c0 .9664983-.7812175 1.75-1.744898 1.75h-45.36734694c-.96368053 0-1.74489796-.7835017-1.74489796-1.75v-7c0-.9664983.78121743-1.75 1.74489796-1.75zm16.6377551-18.7280702c1.1637429 0 2.1071429.7697561 2.1071429 1.7192983v6.877193c0 .9495422-.9434 1.7192982-2.1071429 1.7192982h-54.78571429c-1.16374286 0-2.10714285-.769756-2.10714285-1.7192982v-6.877193c0-.9495422.94339999-1.7192983 2.10714285-1.7192983zm-61.75-19.7719298h52c1.051971 0 1.9142467.71065913 1.9939827 1.61323853l.0060173.13676147v7c0 .92047458-.8121819 1.6749658-1.8437012 1.7447349l-.1562988.0052651h-52c-1.05197095 0-1.91424667-.71065913-1.99398274-1.61323853l-.00601726-.13676147v-7c0-.92047458.81218186-1.67496583 1.84370118-1.7447349l.15629882-.0052651h52z" filter="url(#c)"/><path d="m47.1122449 38.5c.9636805 0 1.744898.7835017 1.744898 1.75v7c0 .9664983-.7812175 1.75-1.744898 1.75h-45.36734694c-.96368053 0-1.74489796-.7835017-1.74489796-1.75v-7c0-.9664983.78121743-1.75 1.74489796-1.75zm16.6377551-18.7280702c1.1637429 0 2.1071429.7697561 2.1071429 1.7192983v6.877193c0 .9495422-.9434 1.7192982-2.1071429 1.7192982h-54.78571429c-1.16374286 0-2.10714285-.769756-2.10714285-1.7192982v-6.877193c0-.9495422.94339999-1.7192983 2.10714285-1.7192983zm-61.75-19.7719298h52c1.051971 0 1.9142467.71065913 1.9939827 1.61323853l.0060173.13676147v7c0 .92047458-.8121819 1.6749658-1.8437012 1.7447349l-.1562988.0052651h-52c-1.05197095 0-1.91424667-.71065913-1.99398274-1.61323853l-.00601726-.13676147v-7c0-.92047458.81218186-1.67496583 1.84370118-1.7447349l.15629882-.0052651h52z"/></g></g></g></svg>

<svg xmlns="http://www.w3.org/2000/svg" xmlns:xlink="http://www.w3.org/1999/xlink" width="80" height="57" viewBox="0 0 80 57">
  <defs>
    <path id="benefit-stream-a" d="M0.5,13.84 C0.5,6.473 6.473,0.5 13.84,0.5 L62.16,0.5 C69.527,0.5 75.5,6.473 75.5,13.84 L75.5,62.16 C75.5,69.527 69.527,75.5 62.16,75.5 L13.84,75.5 C6.473,75.5 0.5,69.527 0.5,62.16 L0.5,13.84 Z"/>
    <path id="benefit-stream-c" d="M0.5,13.84 C0.5,6.473 6.473,0.5 13.84,0.5 L62.16,0.5 C69.527,0.5 75.5,6.473 75.5,13.84 L75.5,62.16 C75.5,69.527 69.527,75.5 62.16,75.5 L13.84,75.5 C6.473,75.5 0.5,69.527 0.5,62.16 L0.5,13.84 Z"/>
    <radialGradient id="benefit-stream-d" cx="22.09%" cy="0%" r="106.679%" fx="22.09%" fy="0%">
      <stop offset="0%" stop-color="#FFF"/>
      <stop offset="100%" stop-color="#AEC3EB"/>
    </radialGradient>
    <linearGradient id="benefit-stream-f" x1="50%" x2="50%" y1="0%" y2="100%">
      <stop offset="0%" stop-color="#3F6ABC"/>
      <stop offset="100%" stop-color="#1851BE"/>
    </linearGradient>
    <filter id="benefit-stream-g" width="108.5%" height="111.4%" x="-4.2%" y="-5.7%" filterUnits="objectBoundingBox">
      <feGaussianBlur in="SourceGraphic" stdDeviation=".65"/>
    </filter>
  </defs>
  <g fill="none" fill-rule="evenodd" transform="translate(-4 -7)">
    <mask id="benefit-stream-b" fill="#fff">
      <use xlink:href="#benefit-stream-a"/>
    </mask>
    <path d="M0.5,13.84 C0.5,6.473 6.473,0.5 13.84,0.5 L62.16,0.5 C69.527,0.5 75.5,6.473 75.5,13.84 L75.5,62.16 C75.5,69.527 69.527,75.5 62.16,75.5 L13.84,75.5 C6.473,75.5 0.5,69.527 0.5,62.16 L0.5,13.84 Z" mask="url(#benefit-stream-b)"/>
    <path d="M0.5,13.84 C0.5,6.473 6.473,0.5 13.84,0.5 L62.16,0.5 C69.527,0.5 75.5,6.473 75.5,13.84 L75.5,62.16 C75.5,69.527 69.527,75.5 62.16,75.5 L13.84,75.5 C6.473,75.5 0.5,69.527 0.5,62.16 L0.5,13.84 Z"/>
    <path d="M0.5,13.84 C0.5,6.473 6.473,0.5 13.84,0.5 L62.16,0.5 C69.527,0.5 75.5,6.473 75.5,13.84 L75.5,62.16 C75.5,69.527 69.527,75.5 62.16,75.5 L13.84,75.5 C6.473,75.5 0.5,69.527 0.5,62.16 L0.5,13.84 Z"/>
    <mask id="benefit-stream-e" fill="#fff">
      <use xlink:href="#benefit-stream-c"/>
    </mask>
    <rect width="40" height="40" x="5" y="8" fill="url(#benefit-stream-d)" fill-rule="nonzero" stroke="#FFF" stroke-opacity=".01" stroke-width="1.68" mask="url(#benefit-stream-e)" rx="20"/>
    <rect width="40" height="40" x="5" y="8" fill="url(#benefit-stream-d)" fill-rule="nonzero" stroke="#FFF" stroke-opacity=".01" stroke-width="1.68" mask="url(#benefit-stream-e)" rx="20"/>
    <g fill="url(#benefit-stream-f)" fill-rule="nonzero" stroke="#FFF" stroke-opacity=".01" stroke-width="1.68" transform="translate(17 14)">
      <path d="M47.1122449,38.5 C48.0759254,38.5 48.8571429,39.2835017 48.8571429,40.25 L48.8571429,40.25 L48.8571429,47.25 C48.8571429,48.2164983 48.0759254,49 47.1122449,49 L47.1122449,49 L1.74489796,49 C0.781217426,49 1.27897692e-13,48.2164983 1.27897692e-13,47.25 L1.27897692e-13,47.25 L1.27897692e-13,40.25 C1.27897692e-13,39.2835017 0.781217426,38.5 1.74489796,38.5 L1.74489796,38.5 Z M63.75,19.7719298 C64.9137429,19.7719298 65.8571429,20.5416859 65.8571429,21.4912281 L65.8571429,28.3684211 C65.8571429,29.3179633 64.9137429,30.0877193 63.75,30.0877193 L8.96428571,30.0877193 C7.80054285,30.0877193 6.85714286,29.3179633 6.85714286,28.3684211 L6.85714286,21.4912281 C6.85714286,20.5416859 7.80054285,19.7719298 8.96428571,19.7719298 L63.75,19.7719298 Z M2,-8.8817842e-16 L54,-8.8817842e-16 C55.051971,-8.8817842e-16 55.9142467,0.710659127 55.9939827,1.61323853 L56,1.75 L56,8.75 C56,9.67047458 55.1878181,10.4249658 54.1562988,10.4947349 L54,10.5 L2,10.5 C0.948029048,10.5 0.0857533334,9.78934087 0.0060172584,8.88676147 L0,8.75 L0,1.75 C0,0.829525417 0.81218186,0.0750341667 1.84370118,0.0052651011 L2,-8.8817842e-16 L54,-8.8817842e-16 Z" filter="url(#benefit-stream-g)"/>
      <path d="M47.1122449,38.5 C48.0759254,38.5 48.8571429,39.2835017 48.8571429,40.25 L48.8571429,40.25 L48.8571429,47.25 C48.8571429,48.2164983 48.0759254,49 47.1122449,49 L47.1122449,49 L1.74489796,49 C0.781217426,49 1.27897692e-13,48.2164983 1.27897692e-13,47.25 L1.27897692e-13,47.25 L1.27897692e-13,40.25 C1.27897692e-13,39.2835017 0.781217426,38.5 1.74489796,38.5 L1.74489796,38.5 Z M63.75,19.7719298 C64.9137429,19.7719298 65.8571429,20.5416859 65.8571429,21.4912281 L65.8571429,28.3684211 C65.8571429,29.3179633 64.9137429,30.0877193 63.75,30.0877193 L8.96428571,30.0877193 C7.80054285,30.0877193 6.85714286,29.3179633 6.85714286,28.3684211 L6.85714286,21.4912281 C6.85714286,20.5416859 7.80054285,19.7719298 8.96428571,19.7719298 L63.75,19.7719298 Z M2,-8.8817842e-16 L54,-8.8817842e-16 C55.051971,-8.8817842e-16 55.9142467,0.710659127 55.9939827,1.61323853 L56,1.75 L56,8.75 C56,9.67047458 55.1878181,10.4249658 54.1562988,10.4947349 L54,10.5 L2,10.5 C0.948029048,10.5 0.0857533334,9.78934087 0.0060172584,8.88676147 L0,8.75 L0,1.75 C0,0.829525417 0.81218186,0.0750341667 1.84370118,0.0052651011 L2,-8.8817842e-16 L54,-8.8817842e-16 Z"/>
    </g>
  </g>
</svg>
